Adwaita++/actions/16/labplot-xy-curve.svg

<svg height="16" viewBox="0 0 16 16" width="16" xmlns="http://www.w3.org/2000/svg">
  <path d="m13.779297 2.9746094-.03125.0566406c-.0743-.0124-.149053-.0253906-.226563-.0253906-.8178 0-1.525437.7232575-1.523437 1.5234375-.0009.35866.146633.6880456.376953.9472656l-3.1210938 5.5546875c-.0760999-.0131-.1529318-.025391-.2324218-.025391-.0133 0-.0258625.003907-.0390625.003907l-1.5429688-4.3339848c.3393-.2733299.5596938-.6875343.5585938-1.1464843.002-.80022-.6587325-1.5234375-1.4765625-1.5234375-.8178 0-1.5254375.7232575-1.5234375 1.5234375-.00015.058.0104781.1134318.0175781.1699219l-2.4804688 1.2402343c-.26449-.26356-.6194918-.4335937-1.0136718-.4335937-.81780003 0-1.52543753.7232575-1.52343753 1.5234375-.002.80023.7056775 1.4765625 1.52343753 1.4765625.81779 0 1.4784625-.6762925 1.4765625-1.4765625.00018-.0735-.0108844-.1450769-.0214844-.2167969l2.4824219-1.2402344c.27487.26288.646455.4273306 1.046875.4316406l1.5625 4.3671878c-.34226.2863-.5713925.707363-.5703125 1.158203-.002.80023.7056775 1.476562 1.5234375 1.476562.81779 0 1.4784626-.676292 1.4765626-1.476562.00092-.36959-.145043-.719198-.376953-.992188l3.095703-5.4999996.589844 4.1699216c-.4729.26781-.809914.773416-.808594 1.322266-.002.80023.705677 1.476562 1.523437 1.476562.81779 0 1.478463-.676292 1.476563-1.476562.002-.70802-.515612-1.352388-1.201172-1.492188l-.599609-4.2031246c.47546-.24905.802131-.7438275.800781-1.3046875.002-.71067-.519605-1.3576407-1.208985-1.4941407z" fill="#474747"/>
</svg>

<svg xmlns="http://www.w3.org/2000/svg" width="16" height="16" viewBox="0 0 16 16">
 <defs>
  <style id="current-color-scheme" type="text/css">
   .ColorScheme-Text { color:#474747; } .ColorScheme-Highlight { color:#4285f4; }
  </style>
 </defs>
 <path style="fill:currentColor" class="ColorScheme-Text" d="M 13.779297 2.9746094 L 13.748047 3.03125 C 13.673747 3.01885 13.598994 3.0058594 13.521484 3.0058594 C 12.703684 3.0058594 11.996047 3.7291169 11.998047 4.5292969 C 11.997147 4.8879569 12.14468 5.2173425 12.375 5.4765625 L 9.2539062 11.03125 C 9.1778063 11.01815 9.1009744 11.005859 9.0214844 11.005859 C 9.0081844 11.005859 8.9956219 11.009766 8.9824219 11.009766 L 7.4394531 6.6757812 C 7.7787531 6.4024513 7.9991469 5.9882469 7.9980469 5.5292969 C 8.0000469 4.7290769 7.3393144 4.0058594 6.5214844 4.0058594 C 5.7036844 4.0058594 4.9960469 4.7291169 4.9980469 5.5292969 C 4.9978969 5.5872969 5.008525 5.6427287 5.015625 5.6992188 L 2.5351562 6.9394531 C 2.2706662 6.6758931 1.9156644 6.5058594 1.5214844 6.5058594 C 0.70368437 6.5058594 -0.003953125 7.2291169 -0.001953125 8.0292969 C -0.003953125 8.8295269 0.70372437 9.5058594 1.5214844 9.5058594 C 2.3392744 9.5058594 2.9999469 8.8295669 2.9980469 8.0292969 C 2.9982269 7.9557969 2.9871625 7.88422 2.9765625 7.8125 L 5.4589844 6.5722656 C 5.7338544 6.8351456 6.1054394 6.9995962 6.5058594 7.0039062 L 8.0683594 11.371094 C 7.7260994 11.657394 7.4969669 12.078457 7.4980469 12.529297 C 7.4960469 13.329527 8.2037244 14.005859 9.0214844 14.005859 C 9.8392744 14.005859 10.499947 13.329567 10.498047 12.529297 C 10.498967 12.159707 10.353004 11.810099 10.121094 11.537109 L 13.216797 6.0371094 L 13.806641 10.207031 C 13.333741 10.474841 12.996727 10.980447 12.998047 11.529297 C 12.996047 12.329527 13.703724 13.005859 14.521484 13.005859 C 15.339274 13.005859 15.999947 12.329567 15.998047 11.529297 C 16.000047 10.821277 15.482435 10.176909 14.796875 10.037109 L 14.197266 5.8339844 C 14.672726 5.5849344 14.999397 5.0901569 14.998047 4.5292969 C 15.000047 3.8186269 14.478442 3.1716562 13.789062 3.0351562 L 13.779297 2.9746094 z"/>
</svg>
